Newaita-dark/apps/24/libreoffice-writer.svg

<?xml version="1.0" encoding="UTF-8"?>
<svg xmlns="http://www.w3.org/2000/svg" xmlns:xlink="http://www.w3.org/1999/xlink" width="24pt" height="24pt" viewBox="0 0 24 24" version="1.1">
<defs>
<linearGradient id="linear0" gradientUnits="userSpaceOnUse" x1="254" y1="233.5" x2="254" y2="254.666672" gradientTransform="matrix(0.0468795,0,0,0.0468795,-0.0000028613,10.079089)">
<stop offset="0" style="stop-color:rgb(0%,0%,0%);stop-opacity:0.27451;"/>
<stop offset="1" style="stop-color:rgb(0%,0%,0%);stop-opacity:0;"/>
</linearGradient>
<radialGradient id="radial0" gradientUnits="userSpaceOnUse" cx="450.908936" cy="189.579361" fx="450.908936" fy="189.579361" r="21.166656" gradientTransform="matrix(0.000000130628,-0.0585994,-0.105479,-0.0000000761539,36.617284,47.696499)">
<stop offset="0" style="stop-color:rgb(0%,0%,0%);stop-opacity:0.313725;"/>
<stop offset="0.222222" style="stop-color:rgb(0%,0%,0%);stop-opacity:0.27451;"/>
<stop offset="1" style="stop-color:rgb(0%,0%,0%);stop-opacity:0;"/>
</radialGradient>
<radialGradient id="radial1" gradientUnits="userSpaceOnUse" cx="450.908936" cy="189.579361" fx="450.908936" fy="189.579361" r="21.166656" gradientTransform="matrix(-0.000000130628,0.0585994,0.105479,0.0000000761539,-13.298649,-5.645609)">
<stop offset="0" style="stop-color:rgb(0%,0%,0%);stop-opacity:0.313725;"/>
<stop offset="0.222222" style="stop-color:rgb(0%,0%,0%);stop-opacity:0.27451;"/>
<stop offset="1" style="stop-color:rgb(0%,0%,0%);stop-opacity:0;"/>
</radialGradient>
<radialGradient id="radial2" gradientUnits="userSpaceOnUse" cx="450.908936" cy="189.579361" fx="450.908936" fy="189.579361" r="21.166656" gradientTransform="matrix(-0.000000130628,-0.0585994,0.105479,-0.0000000761539,-13.298649,47.696499)">
<stop offset="0" style="stop-color:rgb(0%,0%,0%);stop-opacity:0.313725;"/>
<stop offset="0.222222" style="stop-color:rgb(0%,0%,0%);stop-opacity:0.27451;"/>
<stop offset="1" style="stop-color:rgb(0%,0%,0%);stop-opacity:0;"/>
</radialGradient>
<radialGradient id="radial3" gradientUnits="userSpaceOnUse" cx="450.908936" cy="189.579361" fx="450.908936" fy="189.579361" r="21.166656" gradientTransform="matrix(0.000000130628,0.0585994,-0.105479,0.0000000761539,36.617282,-5.64561)">
<stop offset="0" style="stop-color:rgb(0%,0%,0%);stop-opacity:0.313725;"/>
<stop offset="0.222222" style="stop-color:rgb(0%,0%,0%);stop-opacity:0.27451;"/>
<stop offset="1" style="stop-color:rgb(0%,0%,0%);stop-opacity:0;"/>
</radialGradient>
<filter id="alpha" filterUnits="objectBoundingBox" x="0%" y="0%" width="100%" height="100%">
  <feColorMatrix type="matrix" in="SourceGraphic" values="0 0 0 0 1 0 0 0 0 1 0 0 0 0 1 0 0 0 1 0"/>
</filter>
<mask id="mask0">
  <g filter="url(#alpha)">
<rect x="0" y="0" width="24" height="24" style="fill:rgb(0%,0%,0%);fill-opacity:0.988235;stroke:none;"/>
  </g>
</mask>
<linearGradient id="linear1" gradientUnits="userSpaceOnUse" x1="940" y1="1695.118164" x2="940" y2="175.118118" gradientTransform="matrix(0.0124035,0,0,0.0124035,0,0)">
<stop offset="0" style="stop-color:rgb(93.333333%,93.333333%,93.333333%);stop-opacity:1;"/>
<stop offset="1" style="stop-color:rgb(96.078431%,96.078431%,96.078431%);stop-opacity:1;"/>
</linearGradient>
<clipPath id="clip1">
  <rect x="0" y="0" width="24" height="24"/>
</clipPath>
<g id="surface5" clip-path="url(#clip1)">
<path style=" stroke:none;fill-rule:nonzero;fill:url(#linear1);" d="M 5.457031 2.171875 C 4.90625 2.171875 4.464844 2.613281 4.464844 3.164062 L 4.464844 20.03125 C 4.464844 20.582031 4.90625 21.027344 5.457031 21.027344 L 17.859375 21.027344 C 18.410156 21.027344 18.851562 20.582031 18.851562 20.03125 L 18.851562 6.636719 L 14.386719 2.171875 Z M 15.378906 2.171875 L 18.851562 5.644531 L 18.851562 3.164062 C 18.851562 2.613281 18.410156 2.171875 17.859375 2.171875 Z M 15.378906 2.171875 "/>
</g>
<mask id="mask1">
  <g filter="url(#alpha)">
<rect x="0" y="0" width="24" height="24" style="fill:rgb(0%,0%,0%);fill-opacity:0.988235;stroke:none;"/>
  </g>
</mask>
<linearGradient id="linear2" gradientUnits="userSpaceOnUse" x1="940" y1="1695.118164" x2="940" y2="175.118118" gradientTransform="matrix(0.0124035,0,0,0.0124035,0,0)">
<stop offset="0" style="stop-color:rgb(49.411765%,34.117647%,76.078431%);stop-opacity:1;"/>
<stop offset="1" style="stop-color:rgb(58.431373%,45.882353%,80.392157%);stop-opacity:1;"/>
</linearGradient>
<clipPath id="clip2">
  <rect x="0" y="0" width="24" height="24"/>
</clipPath>
<g id="surface8" clip-path="url(#clip2)">
<path style=" stroke:none;fill-rule:nonzero;fill:url(#linear2);" d="M 15.378906 2.171875 L 18.851562 5.644531 L 18.851562 3.164062 C 18.851562 2.613281 18.410156 2.171875 17.859375 2.171875 Z M 15.378906 2.171875 "/>
</g>
<mask id="mask2">
  <g filter="url(#alpha)">
<rect x="0" y="0" width="24" height="24" style="fill:rgb(0%,0%,0%);fill-opacity:0.988235;stroke:none;"/>
  </g>
</mask>
<clipPath id="clip3">
  <rect x="0" y="0" width="24" height="24"/>
</clipPath>
<g id="surface11" clip-path="url(#clip3)">
<path style=" stroke:none;fill-rule:nonzero;fill:rgb(100%,100%,100%);fill-opacity:0.392157;" d="M 5.457031 2.171875 C 4.90625 2.171875 4.464844 2.613281 4.464844 3.164062 L 4.464844 3.414062 C 4.464844 2.863281 4.90625 2.421875 5.457031 2.421875 L 14.386719 2.421875 L 18.851562 6.886719 L 18.851562 6.636719 L 14.386719 2.171875 Z M 15.378906 2.171875 L 15.628906 2.421875 L 17.859375 2.421875 C 18.410156 2.421875 18.851562 2.863281 18.851562 3.414062 L 18.851562 3.164062 C 18.851562 2.613281 18.410156 2.171875 17.859375 2.171875 Z M 15.378906 2.171875 "/>
</g>
<mask id="mask3">
  <g filter="url(#alpha)">
<rect x="0" y="0" width="24" height="24" style="fill:rgb(0%,0%,0%);fill-opacity:0.988235;stroke:none;"/>
  </g>
</mask>
<clipPath id="clip4">
  <rect x="0" y="0" width="24" height="24"/>
</clipPath>
<g id="surface14" clip-path="url(#clip4)">
<path style=" stroke:none;fill-rule:nonzero;fill:rgb(0%,0%,0%);fill-opacity:0.235294;" d="M 15.378906 2.171875 L 18.851562 5.644531 L 18.851562 5.277344 L 15.75 2.171875 Z M 4.464844 19.664062 L 4.464844 20.03125 C 4.464844 20.582031 4.90625 21.027344 5.457031 21.027344 L 17.859375 21.027344 C 18.410156 21.027344 18.851562 20.582031 18.851562 20.03125 L 18.851562 19.664062 C 18.851562 20.214844 18.410156 20.65625 17.859375 20.65625 L 5.457031 20.65625 C 4.90625 20.65625 4.464844 20.214844 4.464844 19.664062 Z M 4.464844 19.664062 "/>
</g>
<mask id="mask4">
  <g filter="url(#alpha)">
<rect x="0" y="0" width="24" height="24" style="fill:rgb(0%,0%,0%);fill-opacity:0.988235;stroke:none;"/>
  </g>
</mask>
<clipPath id="clip5">
  <rect x="0" y="0" width="24" height="24"/>
</clipPath>
<g id="surface17" clip-path="url(#clip5)">
<path style=" stroke:none;fill-rule:nonzero;fill:rgb(12.941177%,12.941177%,12.941177%);fill-opacity:1;" d="M 5.457031 2.101562 C 4.871094 2.101562 4.394531 2.578125 4.394531 3.164062 L 4.394531 20.03125 C 4.394531 20.621094 4.871094 21.097656 5.457031 21.097656 L 17.859375 21.097656 C 18.449219 21.097656 18.921875 20.621094 18.921875 20.03125 L 18.921875 6.636719 C 18.921875 6.617188 18.917969 6.601562 18.902344 6.585938 L 14.4375 2.121094 C 14.425781 2.109375 14.40625 2.101562 14.386719 2.101562 Z M 15.378906 2.101562 C 15.351562 2.101562 15.328125 2.117188 15.316406 2.144531 C 15.304688 2.171875 15.308594 2.203125 15.332031 2.222656 L 18.804688 5.695312 C 18.824219 5.714844 18.855469 5.722656 18.878906 5.710938 C 18.90625 5.699219 18.921875 5.671875 18.921875 5.644531 L 18.921875 3.164062 C 18.921875 2.578125 18.449219 2.101562 17.859375 2.101562 Z M 5.457031 2.242188 L 14.359375 2.242188 L 18.78125 6.667969 L 18.78125 20.03125 C 18.78125 20.546875 18.375 20.957031 17.859375 20.957031 L 5.457031 20.957031 C 4.945312 20.957031 4.535156 20.546875 4.535156 20.03125 L 4.535156 3.164062 C 4.535156 2.652344 4.945312 2.242188 5.457031 2.242188 Z M 15.550781 2.242188 L 17.859375 2.242188 C 18.375 2.242188 18.78125 2.652344 18.78125 3.164062 L 18.78125 5.476562 Z M 15.550781 2.242188 "/>
</g>
<mask id="mask5">
  <g filter="url(#alpha)">
<rect x="0" y="0" width="24" height="24" style="fill:rgb(0%,0%,0%);fill-opacity:0.988235;stroke:none;"/>
  </g>
</mask>
<linearGradient id="linear3" gradientUnits="userSpaceOnUse" x1="243.416672" y1="127.666656" x2="243.416672" y2="-94.583321" gradientTransform="matrix(1,0,0,1,0,0)">
<stop offset="0" style="stop-color:rgb(49.411765%,34.117647%,76.078431%);stop-opacity:1;"/>
<stop offset="1" style="stop-color:rgb(58.431373%,45.882353%,80.392157%);stop-opacity:1;"/>
</linearGradient>
<clipPath id="clip6">
  <rect x="0" y="0" width="24" height="24"/>
</clipPath>
<g id="surface20" clip-path="url(#clip6)">
<path style="fill-rule:nonzero;fill:url(#linear3);stroke-width:3;stroke-linecap:round;stroke-linejoin:round;stroke:rgb(12.941177%,12.941177%,12.941177%);stroke-opacity:1;stroke-miterlimit:4;" d="M 169.317164 -62.847863 L 328.052006 -62.847863 C 333.968108 -62.847863 338.634329 -58.098317 338.634329 -52.26554 C 338.634329 -46.432764 333.968108 -41.683218 328.052006 -41.683218 L 169.317164 -41.683218 C 163.484388 -41.683218 158.734842 -46.432764 158.734842 -52.26554 C 158.734842 -58.098317 163.484388 -62.847863 169.317164 -62.847863 Z M 169.317164 -62.847863 " transform="matrix(0.0468795,0,0,0.0468795,0,10.079087)"/>
</g>
<mask id="mask6">
  <g filter="url(#alpha)">
<rect x="0" y="0" width="24" height="24" style="fill:rgb(0%,0%,0%);fill-opacity:0.988235;stroke:none;"/>
  </g>
</mask>
<linearGradient id="linear4" gradientUnits="userSpaceOnUse" x1="254" y1="85.333336" x2="254" y2="-136.916656" gradientTransform="matrix(1,0,0,1,0,42.333332)">
<stop offset="0" style="stop-color:rgb(49.411765%,34.117647%,76.078431%);stop-opacity:1;"/>
<stop offset="1" style="stop-color:rgb(58.431373%,45.882353%,80.392157%);stop-opacity:1;"/>
</linearGradient>
<clipPath id="clip7">
  <rect x="0" y="0" width="24" height="24"/>
</clipPath>
<g id="surface23" clip-path="url(#clip7)">
<path style="fill-rule:nonzero;fill:url(#linear4);stroke-width:3;stroke-linecap:round;stroke-linejoin:round;stroke:rgb(12.941177%,12.941177%,12.941177%);stroke-opacity:1;stroke-miterlimit:4;" d="M 169.317164 -9.936249 L 328.052006 -9.936249 C 333.968108 -9.936249 338.634329 -5.186703 338.634329 0.646073 C 338.634329 6.47885 333.968108 11.228396 328.052006 11.228396 L 169.317164 11.228396 C 163.484388 11.228396 158.734842 6.47885 158.734842 0.646073 C 158.734842 -5.186703 163.484388 -9.936249 169.317164 -9.936249 Z M 169.317164 -9.936249 " transform="matrix(0.0468795,0,0,0.0468795,0,10.079087)"/>
</g>
<mask id="mask7">
  <g filter="url(#alpha)">
<rect x="0" y="0" width="24" height="24" style="fill:rgb(0%,0%,0%);fill-opacity:0.988235;stroke:none;"/>
  </g>
</mask>
<linearGradient id="linear5" gradientUnits="userSpaceOnUse" x1="248.708344" y1="43" x2="248.708344" y2="-179.25" gradientTransform="matrix(1,0,0,1,0,84.666664)">
<stop offset="0" style="stop-color:rgb(49.411765%,34.117647%,76.078431%);stop-opacity:1;"/>
<stop offset="1" style="stop-color:rgb(58.431373%,45.882353%,80.392157%);stop-opacity:1;"/>
</linearGradient>
<clipPath id="clip8">
  <rect x="0" y="0" width="24" height="24"/>
</clipPath>
<g id="surface26" clip-path="url(#clip8)">
<path style="fill-rule:nonzero;fill:url(#linear5);stroke-width:3;stroke-linecap:round;stroke-linejoin:round;stroke:rgb(12.941177%,12.941177%,12.941177%);stroke-opacity:1;stroke-miterlimit:4;" d="M 169.317164 42.975365 L 328.052006 42.975365 C 333.968108 42.975365 338.634329 47.55826 338.634329 53.14106 L 338.634329 54.05764 C 338.634329 59.64044 333.968108 64.14001 328.052006 64.14001 L 169.317164 64.14001 C 163.484388 64.14001 158.734842 59.64044 158.734842 54.05764 L 158.734842 53.14106 C 158.734842 47.55826 163.484388 42.975365 169.317164 42.975365 Z M 169.317164 42.975365 " transform="matrix(0.0468795,0,0,0.0468795,0,10.079087)"/>
</g>
<mask id="mask8">
  <g filter="url(#alpha)">
<rect x="0" y="0" width="24" height="24" style="fill:rgb(0%,0%,0%);fill-opacity:0.988235;stroke:none;"/>
  </g>
</mask>
<linearGradient id="linear6" gradientUnits="userSpaceOnUse" x1="248.708344" y1="0.666667" x2="248.708344" y2="-221.583328" gradientTransform="matrix(1,0,0,1,0,127)">
<stop offset="0" style="stop-color:rgb(49.411765%,34.117647%,76.078431%);stop-opacity:1;"/>
<stop offset="1" style="stop-color:rgb(58.431373%,45.882353%,80.392157%);stop-opacity:1;"/>
</linearGradient>
<clipPath id="clip9">
  <rect x="0" y="0" width="24" height="24"/>
</clipPath>
<g id="surface29" clip-path="url(#clip9)">
<path style="fill-rule:nonzero;fill:url(#linear6);stroke-width:3;stroke-linecap:round;stroke-linejoin:round;stroke:rgb(12.941177%,12.941177%,12.941177%);stroke-opacity:1;stroke-miterlimit:4;" d="M 169.317164 95.886978 L 328.052006 95.886978 C 333.968108 95.886978 338.634329 100.636525 338.634329 106.469301 C 338.634329 112.385403 333.968108 117.051624 328.052006 117.051624 L 169.317164 117.051624 C 163.484388 117.051624 158.734842 112.385403 158.734842 106.469301 C 158.734842 100.636525 163.484388 95.886978 169.317164 95.886978 Z M 169.317164 95.886978 " transform="matrix(0.0468795,0,0,0.0468795,0,10.079087)"/>
</g>
</defs>
<g id="surface1">
<path style=" stroke:none;fill-rule:nonzero;fill:url(#linear0);" d="M 6.449219 21.027344 L 16.867188 21.027344 L 16.867188 22.019531 L 6.449219 22.019531 Z M 6.449219 21.027344 "/>
<path style=" stroke:none;fill-rule:nonzero;fill:url(#radial0);" d="M 16.867188 21.027344 L 18.851562 21.027344 L 18.851562 20.03125 L 16.867188 20.03125 Z M 16.867188 21.027344 "/>
<path style=" stroke:none;fill-rule:nonzero;fill:url(#radial1);" d="M 6.449219 21.027344 L 4.464844 21.027344 L 4.464844 22.019531 L 6.449219 22.019531 Z M 6.449219 21.027344 "/>
<path style=" stroke:none;fill-rule:nonzero;fill:url(#radial2);" d="M 6.449219 21.027344 L 4.464844 21.027344 L 4.464844 20.03125 L 6.449219 20.03125 Z M 6.449219 21.027344 "/>
<path style=" stroke:none;fill-rule:nonzero;fill:url(#radial3);" d="M 16.867188 21.027344 L 18.851562 21.027344 L 18.851562 22.019531 L 16.867188 22.019531 Z M 16.867188 21.027344 "/>
<use xlink:href="#surface5" mask="url(#mask0)"/>
<use xlink:href="#surface8" mask="url(#mask1)"/>
<use xlink:href="#surface11" mask="url(#mask2)"/>
<use xlink:href="#surface14" mask="url(#mask3)"/>
<use xlink:href="#surface17" mask="url(#mask4)"/>
<use xlink:href="#surface20" mask="url(#mask5)"/>
<use xlink:href="#surface23" mask="url(#mask6)"/>
<use xlink:href="#surface26" mask="url(#mask7)"/>
<use xlink:href="#surface29" mask="url(#mask8)"/>
</g>
</svg>

<svg xmlns="http://www.w3.org/2000/svg" xmlns:xlink="http://www.w3.org/1999/xlink" width="32" height="32" viewBox="0 0 24 24"><defs><linearGradient id="q" gradientUnits="userSpaceOnUse" x1="254" y1="233.5" x2="254" y2="254.667" gradientTransform="matrix(.04688 0 0 .04688 0 10.08)"><stop offset="0" stop-opacity=".275"/><stop offset="1" stop-opacity="0"/></linearGradient><radialGradient id="r" gradientUnits="userSpaceOnUse" cx="450.909" cy="189.579" fx="450.909" fy="189.579" r="21.167" gradientTransform="matrix(0 -.0586 -.10548 0 36.617 47.696)"><stop offset="0" stop-opacity=".314"/><stop offset=".222" stop-opacity=".275"/><stop offset="1" stop-opacity="0"/></radialGradient><radialGradient id="s" gradientUnits="userSpaceOnUse" cx="450.909" cy="189.579" fx="450.909" fy="189.579" r="21.167" gradientTransform="matrix(0 .0586 .10548 0 -13.299 -5.646)"><stop offset="0" stop-opacity=".314"/><stop offset=".222" stop-opacity=".275"/><stop offset="1" stop-opacity="0"/></radialGradient><radialGradient id="t" gradientUnits="userSpaceOnUse" cx="450.909" cy="189.579" fx="450.909" fy="189.579" r="21.167" gradientTransform="matrix(0 -.0586 .10548 0 -13.299 47.696)"><stop offset="0" stop-opacity=".314"/><stop offset=".222" stop-opacity=".275"/><stop offset="1" stop-opacity="0"/></radialGradient><radialGradient id="u" gradientUnits="userSpaceOnUse" cx="450.909" cy="189.579" fx="450.909" fy="189.579" r="21.167" gradientTransform="matrix(0 .0586 -.10548 0 36.617 -5.646)"><stop offset="0" stop-opacity=".314"/><stop offset=".222" stop-opacity=".275"/><stop offset="1" stop-opacity="0"/></radialGradient><filter id="a" filterUnits="objectBoundingBox" x="0%" y="0%" width="100%" height="100%"><feColorMatrix in="SourceGraphic" values="0 0 0 0 1 0 0 0 0 1 0 0 0 0 1 0 0 0 1 0"/></filter><mask id="w"><path fill-opacity=".988" d="M0 0h24v24H0z" filter="url(#a)"/></mask><linearGradient id="c" gradientUnits="userSpaceOnUse" x1="940" y1="1695.118" x2="940" y2="175.118" gradientTransform="scale(.0124)"><stop offset="0" stop-color="#eee"/><stop offset="1" stop-color="#f5f5f5"/></linearGradient><clipPath id="b"><path d="M0 0h24v24H0z"/></clipPath><g id="v" clip-path="url(#b)"><path d="M5.457 2.172a.989.989 0 0 0-.992.992v16.867c0 .551.441.996.992.996h12.402c.551 0 .993-.445.993-.996V6.637l-4.465-4.465zm9.922 0l3.473 3.473v-2.48a.989.989 0 0 0-.993-.993zm0 0" fill="url(#c)"/></g><mask id="y"><path fill-opacity=".988" d="M0 0h24v24H0z" filter="url(#a)"/></mask><linearGradient id="e" gradientUnits="userSpaceOnUse" x1="940" y1="1695.118" x2="940" y2="175.118" gradientTransform="scale(.0124)"><stop offset="0" stop-color="#7e57c2"/><stop offset="1" stop-color="#9575cd"/></linearGradient><clipPath id="d"><path d="M0 0h24v24H0z"/></clipPath><g id="x" clip-path="url(#d)"><path d="M15.379 2.172l3.473 3.473v-2.48a.989.989 0 0 0-.993-.993zm0 0" fill="url(#e)"/></g><mask id="A"><path fill-opacity=".988" d="M0 0h24v24H0z" filter="url(#a)"/></mask><clipPath id="f"><path d="M0 0h24v24H0z"/></clipPath><g id="z" clip-path="url(#f)"><path d="M5.457 2.172a.989.989 0 0 0-.992.992v.25c0-.55.441-.992.992-.992h8.93l4.465 4.465v-.25l-4.465-4.465zm9.922 0l.25.25h2.23c.551 0 .993.441.993.992v-.25a.989.989 0 0 0-.993-.992zm0 0" fill="#fff" fill-opacity=".392"/></g><mask id="C"><path fill-opacity=".988" d="M0 0h24v24H0z" filter="url(#a)"/></mask><clipPath id="g"><path d="M0 0h24v24H0z"/></clipPath><g id="B" clip-path="url(#g)"><path d="M15.379 2.172l3.473 3.473v-.368L15.75 2.172zM4.465 19.664v.367c0 .551.441.996.992.996h12.402c.551 0 .993-.445.993-.996v-.367c0 .55-.442.992-.993.992H5.457a.989.989 0 0 1-.992-.992zm0 0" fill-opacity=".235"/></g><mask id="E"><path fill-opacity=".988" d="M0 0h24v24H0z" filter="url(#a)"/></mask><clipPath id="h"><path d="M0 0h24v24H0z"/></clipPath><g id="D" clip-path="url(#h)"><path d="M5.457 2.102c-.586 0-1.062.476-1.062 1.062v16.867c0 .59.476 1.067 1.062 1.067h12.402c.59 0 1.063-.477 1.063-1.067V6.637a.065.065 0 0 0-.02-.051L14.437 2.12a.074.074 0 0 0-.05-.02zm9.922 0a.067.067 0 0 0-.063.043c-.011.027-.007.058.016.078l3.473 3.472c.02.02.05.028.074.016a.072.072 0 0 0 .043-.066v-2.48c0-.587-.473-1.063-1.063-1.063zm-9.922.14h8.902l4.422 4.426v13.363a.917.917 0 0 1-.922.926H5.457a.92.92 0 0 1-.922-.926V3.164c0-.512.41-.922.922-.922zm10.094 0h2.308c.516 0 .922.41.922.922v2.313zm0 0" fill="#212121"/></g><mask id="G"><path fill-opacity=".988" d="M0 0h24v24H0z" filter="url(#a)"/></mask><linearGradient id="j" gradientUnits="userSpaceOnUse" x1="243.417" y1="127.667" x2="243.417" y2="-94.583"><stop offset="0" stop-color="#7e57c2"/><stop offset="1" stop-color="#9575cd"/></linearGradient><clipPath id="i"><path d="M0 0h24v24H0z"/></clipPath><g id="F" clip-path="url(#i)"><path d="M169.317-62.848h158.735c5.916 0 10.582 4.75 10.582 10.582a10.544 10.544 0 0 1-10.582 10.583H169.317c-5.833 0-10.582-4.75-10.582-10.583 0-5.832 4.75-10.582 10.582-10.582zm0 0" transform="matrix(.04688 0 0 .04688 0 10.08)" fill="url(#j)" stroke-width="3" stroke-linecap="round" stroke-linejoin="round" stroke="#212121"/></g><mask id="I"><path fill-opacity=".988" d="M0 0h24v24H0z" filter="url(#a)"/></mask><linearGradient id="l" gradientUnits="userSpaceOnUse" x1="254" y1="85.333" x2="254" y2="-136.917" gradientTransform="translate(0 42.333)"><stop offset="0" stop-color="#7e57c2"/><stop offset="1" stop-color="#9575cd"/></linearGradient><clipPath id="k"><path d="M0 0h24v24H0z"/></clipPath><g id="H" clip-path="url(#k)"><path d="M169.317-9.936h158.735c5.916 0 10.582 4.75 10.582 10.582a10.544 10.544 0 0 1-10.582 10.582H169.317c-5.833 0-10.582-4.75-10.582-10.582 0-5.833 4.75-10.582 10.582-10.582zm0 0" transform="matrix(.04688 0 0 .04688 0 10.08)" fill="url(#l)" stroke-width="3" stroke-linecap="round" stroke-linejoin="round" stroke="#212121"/></g><mask id="K"><path fill-opacity=".988" d="M0 0h24v24H0z" filter="url(#a)"/></mask><linearGradient id="n" gradientUnits="userSpaceOnUse" x1="248.708" y1="43" x2="248.708" y2="-179.25" gradientTransform="translate(0 84.667)"><stop offset="0" stop-color="#7e57c2"/><stop offset="1" stop-color="#9575cd"/></linearGradient><clipPath id="m"><path d="M0 0h24v24H0z"/></clipPath><g id="J" clip-path="url(#m)"><path d="M169.317 42.975h158.735c5.916 0 10.582 4.583 10.582 10.166v.917c0 5.582-4.666 10.082-10.582 10.082H169.317c-5.833 0-10.582-4.5-10.582-10.082v-.917c0-5.583 4.75-10.166 10.582-10.166zm0 0" transform="matrix(.04688 0 0 .04688 0 10.08)" fill="url(#n)" stroke-width="3" stroke-linecap="round" stroke-linejoin="round" stroke="#212121"/></g><mask id="M"><path fill-opacity=".988" d="M0 0h24v24H0z" filter="url(#a)"/></mask><linearGradient id="p" gradientUnits="userSpaceOnUse" x1="248.708" y1=".667" x2="248.708" y2="-221.583" gradientTransform="translate(0 127)"><stop offset="0" stop-color="#7e57c2"/><stop offset="1" stop-color="#9575cd"/></linearGradient><clipPath id="o"><path d="M0 0h24v24H0z"/></clipPath><g id="L" clip-path="url(#o)"><path d="M169.317 95.887h158.735c5.916 0 10.582 4.75 10.582 10.582 0 5.916-4.666 10.583-10.582 10.583H169.317a10.544 10.544 0 0 1-10.582-10.583c0-5.832 4.75-10.582 10.582-10.582zm0 0" transform="matrix(.04688 0 0 .04688 0 10.08)" fill="url(#p)" stroke-width="3" stroke-linecap="round" stroke-linejoin="round" stroke="#212121"/></g></defs><path d="M6.45 21.027h10.417v.993H6.45zm0 0" fill="url(#q)"/><path d="M16.867 21.027h1.985v-.996h-1.985zm0 0" fill="url(#r)"/><path d="M6.45 21.027H4.464v.993h1.984zm0 0" fill="url(#s)"/><path d="M6.45 21.027H4.464v-.996h1.984zm0 0" fill="url(#t)"/><path d="M16.867 21.027h1.985v.993h-1.985zm0 0" fill="url(#u)"/><use xlink:href="#v" mask="url(#w)"/><use xlink:href="#x" mask="url(#y)"/><use xlink:href="#z" mask="url(#A)"/><use xlink:href="#B" mask="url(#C)"/><use xlink:href="#D" mask="url(#E)"/><use xlink:href="#F" mask="url(#G)"/><use xlink:href="#H" mask="url(#I)"/><use xlink:href="#J" mask="url(#K)"/><use xlink:href="#L" mask="url(#M)"/></svg>
